flaticon/outdoor/fishing-1.svg

<svg xmlns="http://www.w3.org/2000/svg" width="32" height="32" viewBox="0 0 24 24">
    <path d="M 13.628906 17.492188 L 17.085938 17.492188 C 17.085938 19.734375 15.261719 21.558594 13.015625 21.558594 C 10.773438 21.558594 8.949219 19.734375 8.949219 17.492188 L 8.949219 14.519531 L 9.210938 14.617188 C 9.261719 14.636719 9.308594 14.644531 9.355469 14.644531 C 9.519531 14.644531 9.675781 14.542969 9.738281 14.378906 C 9.816406 14.167969 9.710938 13.933594 9.5 13.855469 L 8.949219 13.648438 L 8.949219 12.890625 L 9.210938 12.992188 C 9.261719 13.007812 9.308594 13.015625 9.355469 13.015625 C 9.519531 13.015625 9.675781 12.917969 9.738281 12.753906 C 9.816406 12.542969 9.710938 12.308594 9.5 12.230469 L 8.949219 12.023438 L 8.949219 11.265625 L 9.210938 11.363281 C 9.261719 11.382812 9.308594 11.390625 9.355469 11.390625 C 9.519531 11.390625 9.675781 11.289062 9.738281 11.125 C 9.816406 10.914062 9.710938 10.679688 9.5 10.601562 L 8.949219 10.394531 L 8.949219 9.636719 L 9.210938 9.738281 C 9.261719 9.753906 9.308594 9.761719 9.355469 9.761719 C 9.519531 9.761719 9.675781 9.660156 9.738281 9.5 C 9.816406 9.289062 9.710938 9.054688 9.5 8.976562 L 8.949219 8.769531 L 8.949219 8.542969 C 8.949219 6.339844 8.316406 4.480469 7.320312 3.414062 L 7.320312 0 L 6.507812 0 L 6.507812 2.769531 C 6.128906 2.558594 5.71875 2.441406 5.289062 2.441406 L 4.882812 2.441406 L 4.882812 4.882812 L 5.289062 4.882812 C 5.558594 4.882812 6.320312 5.925781 6.476562 7.84375 L 6.246094 7.753906 C 6.035156 7.675781 5.800781 7.78125 5.722656 7.992188 C 5.640625 8.203125 5.75 8.4375 5.957031 8.515625 L 6.507812 8.722656 L 6.507812 9.480469 L 6.246094 9.382812 C 6.035156 9.304688 5.800781 9.410156 5.722656 9.621094 C 5.640625 9.828125 5.75 10.0625 5.957031 10.144531 L 6.507812 10.351562 L 6.507812 11.109375 L 6.246094 11.007812 C 6.035156 10.929688 5.800781 11.035156 5.722656 11.246094 C 5.640625 11.457031 5.75 11.691406 5.957031 11.769531 L 6.507812 11.976562 L 6.507812 12.734375 L 6.246094 12.636719 C 6.035156 12.558594 5.800781 12.664062 5.722656 12.875 C 5.640625 13.085938 5.75 13.320312 5.957031 13.398438 L 6.492188 13.597656 C 6.402344 14.414062 5.71875 15.050781 4.882812 15.050781 C 4.65625 15.050781 4.472656 15.234375 4.472656 15.457031 C 4.472656 15.683594 4.65625 15.863281 4.882812 15.863281 C 5.507812 15.863281 6.074219 15.625 6.507812 15.238281 L 6.507812 17.492188 C 6.507812 21.082031 9.429688 24 13.015625 24 C 16.605469 24 19.527344 21.082031 19.527344 17.492188 L 19.527344 13.816406 Z M 8.132812 8.464844 L 7.3125 8.15625 C 7.3125 8.148438 7.3125 8.140625 7.3125 8.136719 L 7.320312 8.136719 L 7.320312 4.8125 C 7.816406 5.746094 8.121094 7.027344 8.132812 8.464844 Z M 5.695312 4.167969 L 5.695312 3.304688 C 5.984375 3.378906 6.257812 3.535156 6.507812 3.75 L 6.507812 5.003906 C 6.261719 4.597656 5.984375 4.308594 5.695312 4.167969 Z M 7.320312 9.027344 L 8.136719 9.332031 L 8.136719 10.089844 L 7.320312 9.785156 Z M 7.320312 10.65625 L 8.136719 10.960938 L 8.136719 11.71875 L 7.320312 11.414062 Z M 7.320312 12.28125 L 8.136719 12.585938 L 8.136719 13.34375 L 7.320312 13.039062 Z M 18.710938 17.492188 C 18.710938 20.632812 16.15625 23.1875 13.015625 23.1875 C 9.875 23.1875 7.320312 20.632812 7.320312 17.492188 L 7.320312 13.910156 L 8.136719 14.214844 L 8.136719 17.492188 C 8.136719 20.183594 10.324219 22.371094 13.015625 22.371094 C 15.707031 22.371094 17.898438 20.183594 17.898438 17.492188 L 17.898438 16.679688 L 16.472656 16.679688 L 18.710938 15.28125 Z M 18.710938 17.492188"/>
</svg>

<svg xmlns="http://www.w3.org/2000/svg" width="32" height="32" viewBox="0 0 24 24">
    <path d="M13.629 17.492h3.457a4.072 4.072 0 0 1-4.07 4.067 4.071 4.071 0 0 1-4.067-4.067V14.52l.262.097c.05.02.098.028.144.028.165 0 .32-.102.383-.266a.406.406 0 0 0-.238-.524l-.55-.207v-.757l.26.101c.052.016.099.024.145.024a.406.406 0 0 0 .145-.785l-.55-.208v-.757l.26.097c.052.02.099.028.145.028.165 0 .32-.102.383-.266a.406.406 0 0 0-.238-.523l-.55-.207v-.758l.26.101a.414.414 0 0 0 .527-.238.406.406 0 0 0-.237-.523l-.55-.207v-.227c0-2.203-.634-4.063-1.63-5.129V0h-.812v2.77a2.489 2.489 0 0 0-1.219-.329h-.406v2.442h.406c.27 0 1.031 1.043 1.188 2.96l-.23-.09a.406.406 0 0 0-.524.24.404.404 0 0 0 .234.523l.55.207v.757l-.26-.097a.407.407 0 1 0-.29.762l.55.207v.757l-.26-.101a.406.406 0 0 0-.524.238.404.404 0 0 0 .234.524l.55.207v.757l-.26-.097a.406.406 0 0 0-.524.238.404.404 0 0 0 .234.523l.535.2a1.624 1.624 0 0 1-1.61 1.453.407.407 0 0 0 0 .813c.626 0 1.192-.239 1.626-.626v2.254A6.516 6.516 0 0 0 13.016 24c3.59 0 6.511-2.918 6.511-6.508v-3.676zM8.133 8.465l-.82-.309v-.02h.007V4.814c.496.933.801 2.214.813 3.652zM5.695 4.168v-.863c.29.074.563.23.813.445v1.254c-.246-.406-.524-.695-.813-.836zm1.625 4.86l.817.304v.758l-.817-.305zm0 1.628l.817.305v.758l-.817-.305zm0 1.625l.817.305v.758l-.817-.305zm11.39 5.211a5.701 5.701 0 0 1-5.694 5.695 5.701 5.701 0 0 1-5.696-5.695V13.91l.817.305v3.277a4.883 4.883 0 0 0 4.879 4.88 4.886 4.886 0 0 0 4.882-4.88v-.812h-1.425l2.238-1.399zm0 0"/>
</svg>
